fa/svgs/regular/bell.svg

<svg xmlns="http://www.w3.org/2000/svg" viewBox="0 0 448 512"><!--! Font Awesome Free 6.1.1 by @fontawesome - https://fontawesome.com License - https://fontawesome.com/license/free (Icons: CC BY 4.0, Fonts: SIL OFL 1.1, Code: MIT License) Copyright 2022 Fonticons, Inc.--><path d="M256 32v17.88C328.5 61.39 384 124.2 384 200v33.4c0 45.4 15.5 89.5 43.8 125l14.9 18.6c5.8 7.2 6.9 17.1 2.9 25.4-4 8.3-12.4 13.6-21.6 13.6H24c-9.23 0-17.635-5.3-21.631-13.6A24.019 24.019 0 0 1 5.26 377l14.91-18.6C48.54 322.9 64 278.8 64 233.4V200c0-75.8 55.5-138.61 128-150.12V32c0-17.67 14.3-32 32-32s32 14.33 32 32zm-40 64c-57.4 0-104 46.6-104 104v33.4c0 47.9-13.88 94.6-39.69 134.6H375.7c-25.8-40-39.7-86.7-39.7-134.6V200c0-57.4-46.6-104-104-104h-16zm72 352c0 16.1-6.7 33.3-18.7 45.3S240.1 512 224 512c-17 0-33.3-6.7-45.3-18.7S160 464.1 160 448h128z"/></svg>

<svg xmlns="http://www.w3.org/2000/svg" viewBox="0 0 448 512"><!--! Font Awesome Free 6.2.1 by @fontawesome - https://fontawesome.com License - https://fontawesome.com/license/free (Icons: CC BY 4.0, Fonts: SIL OFL 1.1, Code: MIT License) Copyright 2022 Fonticons, Inc. --><path d="M256 32V49.88C328.5 61.39 384 124.2 384 200V233.4C384 278.8 399.5 322.9 427.8 358.4L442.7 377C448.5 384.2 449.6 394.1 445.6 402.4C441.6 410.7 433.2 416 424 416H24C14.77 416 6.365 410.7 2.369 402.4C-1.628 394.1-.504 384.2 5.26 377L20.17 358.4C48.54 322.9 64 278.8 64 233.4V200C64 124.2 119.5 61.39 192 49.88V32C192 14.33 206.3 0 224 0C241.7 0 256 14.33 256 32V32zM216 96C158.6 96 112 142.6 112 200V233.4C112 281.3 98.12 328 72.31 368H375.7C349.9 328 336 281.3 336 233.4V200C336 142.6 289.4 96 232 96H216zM288 448C288 464.1 281.3 481.3 269.3 493.3C257.3 505.3 240.1 512 224 512C207 512 190.7 505.3 178.7 493.3C166.7 481.3 160 464.1 160 448H288z"/></svg>
